X:1
T: Lord Hume's Reel
C:
R:Strathspey
Q: 128
K:G
M:4/4
L:1/16
|:Bc|d4 B2Bc d3G B3G|E3c A3G FD3 D2Bc|e4 B3f d3G B3G|D3A D3F G4 G2Bc|
d4 B2Bc d3G B3G|E3c A3G FD3 D2Bc|e4 B3f d3G B3G|D3A D3F G4 G2Bc|
d3g g3f e3a a3g|f3d e3f g3a g2Bc|d3g g3f ea3 a3g|f3d e3f g4 g3a|
b3g af3 g3e fd3|e3c dB3 A3B c3e|d4 B3g d3G B3G|E3c BAGF G4 G2:|
